X:88
T: In einem khlen Grunde (1-12), S. 31
N: K0088
O: Luxemburg
S: KINTZELE, Guillaume: An der Ucht, Bd. 1, Luxemburg 1926]
N: in der Quelle mit einer 2. Stimme versehen
R: Liebe, Treue-Untreue]
M: 6/8
L: 1/8
K: G
D | B2BBAB | c2A2F
D | G2GAGA | B4z
B | BAAABc | d3E2
A | G2GAGA | B4z
B | BAAABc | d2gec
A | G2DB2A | G4z

